X:150
T:RVW2/2/150 As I Walked Out
C:Mr. and Mrs. Verrall, Horsham, Sussex, 8 October 1904
L:1/4
Q:1/4=100
M:4/4
I:linebreak $
K:G
"^(Editorial suggestion " D | G A F D |"^(a)" B2 c c | d B (d/c/) A | G3 :|$ d/e/ | 
w: As|I walked out one|eve- ning I|heard a dis- * mal|cry|'Twas be-|
w: I|stood a while and|gazed~all round till~at|length one did _ draw|nigh.||
=f3/2 e/ d/c/ B | c e d B | d G G"^(b)" D | =F3 D |$ G A"^(c)" F D/D/ |"^(d)" c2 A/B/ c | 
w: twixt a moth- * er|and her son I|o- ver- heard them|say saying|son O son to the|seas don't go, come|
w: ||||||
d B (d/c/) A | G3 |:$ D | G A F D |"^(a) var." B B A/B/ c | d B d/c/ A | G3 :|$ d/e/ | 
w: stay at home _ with|me.|||||||
w: ||||||||
=f3/2 e/ d/c/ B | c e d B | d G G"^(b) var" D/E/ | =F3 D |$ G A"^(c) var." c D | 
w: |||||
w: |||||
"^(d) var." B B c2 | d B d/c/ A | G3 |] 
w: |||
w: |||



